SVG/inbox.svg

<?xml version="1.0" encoding="utf-8"?>
<!-- Generated by IcoMoon.io -->
<!DOCTYPE svg PUBLIC "-//W3C//DTD SVG 1.1//EN" "http://www.w3.org/Graphics/SVG/1.1/DTD/svg11.dtd">
<svg version="1.1" xmlns="http://www.w3.org/2000/svg" xmlns:xlink="http://www.w3.org/1999/xlink" width="12" height="14" viewBox="0 0 12 14">
<path fill="#444444" d="M7.992 7.5h2.469q-0.008-0.023-0.020-0.062t-0.020-0.062l-1.656-3.875h-5.531l-1.656 3.875q-0.008 0.016-0.020 0.062t-0.020 0.062h2.469l0.742 1.5h2.5zM12 7.734v3.766q0 0.203-0.148 0.352t-0.352 0.148h-11q-0.203 0-0.352-0.148t-0.148-0.352v-3.766q0-0.484 0.195-0.961l1.859-4.313q0.078-0.195 0.285-0.328t0.41-0.133h6.5q0.203 0 0.41 0.133t0.285 0.328l1.859 4.313q0.195 0.477 0.195 0.961z"></path>
</svg>

<svg xmlns="http://www.w3.org/2000/svg" viewBox="0 0 12 14"><path d="M7.992 7.5h2.47q-.01-.023-.02-.062t-.02-.062L8.764 3.5h-5.53L1.577 7.377q-.008.016-.02.062t-.02.062h2.47l.74 1.5h2.5zM12 7.734V11.5q0 .203-.148.352T11.5 12H.5q-.203 0-.352-.148T0 11.5V7.734q0-.484.195-.96l1.86-4.314q.077-.195.284-.328T2.75 2h6.5q.202 0 .41.132t.284.328l1.86 4.313q.194.477.194.96z" /></svg>
